resources/icons/20px/cloud-server.svg

<svg width="20" height="20" viewBox="0 0 20 20" fill="none" xmlns="http://www.w3.org/2000/svg">
<path fill-rule="evenodd" clip-rule="evenodd" d="M9 15H20V19H9V15ZM12 17C12 17.5523 11.5523 18 11 18C10.4477 18 10 17.5523 10 17C10 16.4477 10.4477 16 11 16C11.5523 16 12 16.4477 12 17ZM14 16C13.4477 16 13 16.4477 13 17C13 17.5523 13.4477 18 14 18H18C18.5523 18 19 17.5523 19 17C19 16.4477 18.5523 16 18 16H14Z" fill="#5F6B7C"/>
<path d="M14.784 5.0216C14.856 5.0108 14.928 5 15 5C17.4176 5 19.4362 6.71865 19.8998 9H9C8.44771 9 8 9.44772 8 10V15H4C1.79 15 0 13.21 0 11C0 9.13 1.28 7.58 3.01 7.14C3.01 7.115 3.0075 7.0925 3.005 7.07C3.0025 7.0475 3 7.025 3 7C3 3.69 5.69 1 9 1C11.62 1 13.83 2.69 14.64 5.04C14.688 5.036 14.736 5.0288 14.784 5.0216Z" fill="#5F6B7C"/>
<path fill-rule="evenodd" clip-rule="evenodd" d="M9 10H20V14H9V10ZM12 12C12 12.5523 11.5523 13 11 13C10.4477 13 10 12.5523 10 12C10 11.4477 10.4477 11 11 11C11.5523 11 12 11.4477 12 12ZM14 11C13.4477 11 13 11.4477 13 12C13 12.5523 13.4477 13 14 13H18C18.5523 13 19 12.5523 19 12C19 11.4477 18.5523 11 18 11H14Z" fill="#5F6B7C"/>
</svg>

<svg xmlns="http://www.w3.org/2000/svg" viewBox="0 0 20 20">
  <path d="M9 15h11v4H9zm3 2a1 1 0 1 1-2 0 1 1 0 0 1 2 0m2-1a1 1 0 1 0 0 2h4a1 1 0 1 0 0-2zM14.784 5.022C14.856 5.01 14.928 5 15 5a5.004 5.004 0 0 1 4.9 4H9a1 1 0 0 0-1 1v5H4c-2.21 0-4-1.79-4-4a3.98 3.98 0 0 1 3.01-3.86q0-.037-.005-.07A1 1 0 0 1 3 7c0-3.31 2.69-6 6-6 2.62 0 4.83 1.69 5.64 4.04q.072-.007.144-.018"/>
  <path d="M9 10h11v4H9zm3 2a1 1 0 1 1-2 0 1 1 0 0 1 2 0m2-1a1 1 0 1 0 0 2h4a1 1 0 1 0 0-2z"/>
</svg>
